icon-themes/sifr_svg/cmd/lc_combine.svg

<svg viewBox="0 0 24 24" xmlns="http://www.w3.org/2000/svg"><g fill="#555753"><path d="m10 3v6h4v6h6v-12zm4 12h-4v-6h-6v12h10z" opacity=".35"/><path d="m9 1c-.554 0-1 .446-1 1v5h-5c-.554 0-1 .446-1 1v14c0 .554.446 1 1 1h12c.554 0 1-.446 1-1v-5h5c.554 0 1-.446 1-1v-14c0-.554-.446-1-1-1zm1 2h10v12h-4v-7c0-.554-.446-1-1-1h-5zm-6 6h4v7c0 .554.446 1 1 1h5v4h-10zm6 0h4v6h-4z"/></g></svg>

<svg xmlns="http://www.w3.org/2000/svg" viewBox="0 0 24 24">
  <path
     style="opacity:0.35;fill:#555753"
     d="m 10,3 v 6 h 4 v 6 h 6 V 3 Z m 4,12 H 10 V 9 H 4 v 12 h 10 z"
     />
  <path
     style="fill:#555753"
     d="M 9,1 C 8.446,1 8,1.446 8,2 V 7 H 3 C 2.446,7 2,7.446 2,8 v 14 c 0,0.554 0.446,1 1,1 h 12 c 0.554,0 1,-0.446 1,-1 v -5 h 5 c 0.554,0 1,-0.446 1,-1 V 2 C 22,1.446 21.554,1 21,1 Z m 1,2 H 20 V 15 H 16 V 8 C 16,7.446 15.554,7 15,7 H 10 Z M 4,9 h 4 v 7 c 0,0.554 0.446,1 1,1 h 5 v 4 H 4 Z m 6,0 h 4 v 6 h -4 z"
     />
</svg>
